icons/svg/old_road_shields/h_pri_shield4.svg

<svg width="39" height="17" viewBox="0 0 39 17" fill="none" xmlns="http://www.w3.org/2000/svg">
<g clip-path="url(#clip0)">
<path fill-rule="evenodd" clip-rule="evenodd" d="M8.02699 0.00100708H30.284C34.684 0.00100708 38.311 3.60601 38.311 8.04201V8.92901C38.311 13.365 34.684 16.97 30.284 16.97H8.02699C3.59799 16.97 -0.00100708 13.365 -0.00100708 8.92901V8.04201C-0.00100708 3.60601 3.59799 0.00100708 8.02699 0.00100708Z" fill="#E79268"/>
<path fill-rule="evenodd" clip-rule="evenodd" d="M8.342 0.915985H29.97C33.913 0.915985 37.113 4.14998 37.113 8.06998V8.89998C37.113 12.821 33.914 16.053 29.97 16.053H8.342C4.399 16.053 1.17 12.821 1.17 8.89998V8.06998C1.17 4.14998 4.398 0.915985 8.342 0.915985Z" fill="white"/>
<path fill-rule="evenodd" clip-rule="evenodd" d="M8.22701 2.60501H30.083C33.142 2.60501 35.626 5.12401 35.626 8.18501V8.81501C35.626 11.877 33.142 14.396 30.083 14.396H8.22701C5.16901 14.396 2.65601 11.876 2.65601 8.81501V8.18501C2.65601 5.12301 5.17001 2.60501 8.22701 2.60501Z" fill="#E79268"/>
</g>
<defs>
<clipPath id="clip0">
<path d="M0 0H38.311V16.971H0V0Z" fill="white"/>
</clipPath>
</defs>
</svg>

<?xml version="1.0" encoding="utf-8"?>
<!-- Generator: Adobe Illustrator 16.0.4, SVG Export Plug-In . SVG Version: 6.00 Build 0)  -->
<!DOCTYPE svg PUBLIC "-//W3C//DTD SVG 1.1//EN" "http://www.w3.org/Graphics/SVG/1.1/DTD/svg11.dtd">
<svg version="1.1" id="Слой_1" xmlns="http://www.w3.org/2000/svg" xmlns:xlink="http://www.w3.org/1999/xlink" x="0px" y="0px"
	 width="38.311px" height="16.971px" viewBox="0 0 38.311 16.971" enable-background="new 0 0 38.311 16.971" xml:space="preserve">
<path fill-rule="evenodd" clip-rule="evenodd" fill="#E79268" d="M8.027,0.001h22.257c4.4,0,8.027,3.605,8.027,8.041v0.887
	c0,4.436-3.627,8.041-8.027,8.041H8.027c-4.429,0-8.028-3.605-8.028-8.041V8.042C-0.001,3.606,3.598,0.001,8.027,0.001L8.027,0.001z
	"/>
<path fill-rule="evenodd" clip-rule="evenodd" fill="#FFFFFF" d="M8.342,0.916H29.97c3.943,0,7.143,3.234,7.143,7.154v0.83
	c0,3.921-3.199,7.153-7.143,7.153H8.342c-3.943,0-7.172-3.232-7.172-7.153v-0.83C1.17,4.15,4.398,0.916,8.342,0.916L8.342,0.916z"/>
<path fill-rule="evenodd" clip-rule="evenodd" fill="#E79268" d="M8.227,2.605h21.856c3.059,0,5.543,2.519,5.543,5.58v0.63
	c0,3.062-2.484,5.581-5.543,5.581H8.227c-3.058,0-5.571-2.52-5.571-5.581v-0.63C2.656,5.123,5.17,2.605,8.227,2.605L8.227,2.605z"/>
</svg>
